src/icons/argo.svg

<?xml version="1.0" encoding="UTF-8"?>
<svg xmlns="http://www.w3.org/2000/svg" xmlns:xlink="http://www.w3.org/1999/xlink" width="24.888889" height="32" viewBox="0 0 24.888889 32" version="1.1">
<defs>
<filter id="alpha" filterUnits="objectBoundingBox" x="0%" y="0%" width="100%" height="100%">
  <feColorMatrix type="matrix" in="SourceGraphic" values="0 0 0 0 1 0 0 0 0 1 0 0 0 0 1 0 0 0 1 0"/>
</filter>
<mask id="mask0">
  <g filter="url(#alpha)">
<rect x="0" y="0" width="24.888889" height="32" style="fill:rgb(0%,0%,0%);fill-opacity:0.3;stroke:none;"/>
  </g>
</mask>
<clipPath id="clip1">
  <rect x="0" y="0" width="25" height="32"/>
</clipPath>
<g id="surface5" clip-path="url(#clip1)">
<path style=" stroke:none;fill-rule:nonzero;fill:rgb(99.607843%,39.215687%,27.450982%);fill-opacity:1;" d="M 17.511719 22.832031 L 17.554688 22.144531 C 14.875 23.410156 12.382812 23.277344 12.382812 23.277344 C 12.382812 23.277344 9.878906 23.382812 7.246094 22.140625 L 7.265625 22.808594 C 7.265625 22.808594 9.140625 23.960938 12.382812 23.960938 C 15.628906 23.960938 17.511719 22.832031 17.511719 22.832031 Z M 17.511719 22.832031 "/>
</g>
<mask id="mask1">
  <g filter="url(#alpha)">
<rect x="0" y="0" width="24.888889" height="32" style="fill:rgb(0%,0%,0%);fill-opacity:0.5;stroke:none;"/>
  </g>
</mask>
<clipPath id="clip2">
  <rect x="0" y="0" width="25" height="32"/>
</clipPath>
<g id="surface8" clip-path="url(#clip2)">
<path style=" stroke:none;fill-rule:nonzero;fill:rgb(99.607843%,65.490198%,46.666667%);fill-opacity:1;" d="M 10.230469 8.320312 C 10.507812 8.328125 10.765625 8.183594 10.90625 7.945312 C 11.046875 7.707031 11.046875 7.410156 10.90625 7.167969 C 10.765625 6.929688 10.503906 6.785156 10.226562 6.792969 C 9.8125 6.804688 9.480469 7.140625 9.484375 7.558594 C 9.484375 7.972656 9.8125 8.3125 10.230469 8.320312 Z M 10.230469 8.320312 "/>
</g>
</defs>
<g id="surface1">
<path style=" stroke:none;fill-rule:nonzero;fill:rgb(100%,100%,100%);fill-opacity:1;" d="M 14.425781 18.746094 C 14.425781 19.960938 13.621094 20.605469 12.316406 20.605469 C 11.011719 20.605469 10.292969 19.839844 10.292969 18.746094 C 10.292969 18.746094 11.011719 19.757812 12.316406 19.757812 C 13.621094 19.757812 14.425781 18.746094 14.425781 18.746094 Z M 14.425781 18.746094 "/>
<path style=" stroke:none;fill-rule:nonzero;fill:rgb(88.627452%,96.078432%,98.823529%);fill-opacity:1;" d="M 12.445312 23.472656 C 18.804688 23.472656 23.960938 18.316406 23.960938 11.949219 C 23.960938 5.585938 18.804688 0.425781 12.445312 0.425781 C 6.085938 0.425781 0.929688 5.585938 0.929688 11.949219 C 0.929688 18.316406 6.085938 23.472656 12.445312 23.472656 Z M 12.445312 23.472656 "/>
<path style=" stroke:none;fill-rule:nonzero;fill:rgb(80.392158%,92.54902%,96.470588%);fill-opacity:1;" d="M 12.445312 21.59375 C 17.644531 21.59375 21.859375 17.375 21.859375 12.171875 C 21.859375 6.96875 17.644531 2.75 12.445312 2.75 C 7.246094 2.75 3.03125 6.96875 3.03125 12.171875 C 3.03125 17.375 7.246094 21.59375 12.445312 21.59375 Z M 12.445312 21.59375 "/>
<path style=" stroke:none;fill-rule:nonzero;fill:rgb(100%,100%,100%);fill-opacity:1;" d="M 8.921875 3.921875 C 9.230469 3.921875 9.480469 3.671875 9.480469 3.363281 C 9.480469 3.058594 9.230469 2.808594 8.921875 2.808594 C 8.617188 2.808594 8.367188 3.058594 8.367188 3.363281 C 8.367188 3.671875 8.617188 3.921875 8.921875 3.921875 Z M 4.785156 17.878906 C 4.828125 17.9375 4.898438 17.964844 4.96875 17.957031 C 5.039062 17.949219 5.097656 17.902344 5.125 17.835938 C 5.148438 17.769531 5.136719 17.695312 5.089844 17.640625 C 1.328125 12.832031 3.5 6.601562 7.765625 4.15625 C 7.855469 4.101562 7.882812 3.988281 7.832031 3.898438 C 7.78125 3.808594 7.667969 3.777344 7.574219 3.824219 C 3.136719 6.367188 0.859375 12.855469 4.785156 17.878906 Z M 4.785156 17.878906 "/>
<path style=" stroke:none;fill-rule:nonzero;fill:rgb(70.980394%,82.352942%,95.294118%);fill-opacity:1;" d="M 0.824219 9.660156 C 0.824219 9.578125 0.757812 9.511719 0.675781 9.511719 C 0.59375 9.511719 0.523438 9.578125 0.523438 9.660156 Z M 0.523438 14.175781 C 0.523438 14.257812 0.59375 14.324219 0.675781 14.324219 C 0.757812 14.324219 0.824219 14.257812 0.824219 14.175781 Z M 24.304688 9.640625 C 24.304688 9.558594 24.234375 9.492188 24.152344 9.492188 C 24.070312 9.492188 24.003906 9.558594 24.003906 9.640625 Z M 24.003906 14.15625 C 24.003906 14.238281 24.070312 14.304688 24.152344 14.304688 C 24.234375 14.304688 24.304688 14.238281 24.304688 14.15625 Z M 12.414062 23.816406 C 18.980469 23.816406 24.304688 18.488281 24.304688 11.917969 L 24.003906 11.917969 C 24.003906 18.324219 18.816406 23.515625 12.414062 23.515625 Z M 24.304688 11.917969 C 24.304688 5.347656 18.980469 0.0195312 12.414062 0.0195312 L 12.414062 0.320312 C 18.816406 0.320312 24.003906 5.515625 24.003906 11.917969 Z M 12.414062 0.0195312 C 5.847656 0.0195312 0.523438 5.347656 0.523438 11.917969 L 0.824219 11.917969 C 0.824219 5.511719 6.011719 0.320312 12.414062 0.320312 Z M 0.523438 11.917969 C 0.523438 18.488281 5.847656 23.816406 12.414062 23.816406 L 12.414062 23.515625 C 6.015625 23.515625 0.824219 18.324219 0.824219 11.917969 Z M 0.523438 9.660156 L 0.523438 14.175781 L 0.824219 14.175781 L 0.824219 9.660156 Z M 24.003906 9.640625 L 24.003906 14.15625 L 24.304688 14.15625 L 24.304688 9.640625 Z M 24.003906 9.640625 "/>
<path style=" stroke:none;fill-rule:nonzero;fill:rgb(70.980394%,82.352942%,95.294118%);fill-opacity:1;" d="M 0.929688 9.667969 C 0.933594 9.5 0.847656 9.339844 0.703125 9.25 C 0.554688 9.164062 0.371094 9.164062 0.226562 9.25 C 0.078125 9.339844 -0.0078125 9.5 0 9.667969 L 0 14.230469 C -0.0078125 14.398438 0.078125 14.558594 0.226562 14.648438 C 0.371094 14.734375 0.554688 14.734375 0.703125 14.648438 C 0.847656 14.558594 0.933594 14.398438 0.929688 14.230469 Z M 24.890625 9.667969 C 24.894531 9.5 24.808594 9.339844 24.664062 9.25 C 24.515625 9.164062 24.332031 9.164062 24.1875 9.25 C 24.039062 9.339844 23.953125 9.5 23.960938 9.667969 L 23.960938 14.230469 C 23.953125 14.398438 24.039062 14.558594 24.1875 14.648438 C 24.332031 14.734375 24.515625 14.734375 24.664062 14.648438 C 24.808594 14.558594 24.894531 14.398438 24.890625 14.230469 Z M 24.890625 9.667969 "/>
<path style=" stroke:none;fill-rule:nonzero;fill:rgb(99.607843%,45.09804%,24.313726%);fill-opacity:1;" d="M 7.332031 29.460938 C 7.871094 29.242188 7.761719 29.023438 7.761719 28.917969 L 7.5 24.953125 L 7.269531 22.96875 L 6.921875 10.585938 C 6.921875 7.648438 9.09375 4.898438 12.375 4.898438 C 15.65625 4.898438 17.976562 7.542969 17.980469 10.585938 C 17.886719 16.464844 17.726562 18.703125 17.507812 22.925781 C 17.480469 23.503906 17.40625 24.375 17.378906 24.910156 C 17.257812 27.550781 17.117188 28.84375 17.117188 28.917969 C 17.117188 29.027344 17.007812 29.242188 17.542969 29.460938 C 18.082031 29.679688 19.320312 29.964844 19.320312 30.035156 C 19.320312 30.101562 17.226562 30.035156 17.226562 30.035156 C 16.027344 30.035156 16.027344 29.132812 16.027344 28.917969 C 16.027344 28.699219 15.699219 24.949219 15.699219 24.949219 L 15.589844 29.789062 C 15.589844 30.007812 15.699219 30.335938 16.460938 30.554688 C 16.460938 30.554688 18.128906 30.804688 18.128906 30.898438 C 18.128906 30.988281 16.136719 30.898438 16.136719 30.898438 C 14.617188 30.898438 14.617188 30.007812 14.617188 30.007812 L 14.289062 26.042969 C 14.289062 26.042969 14.179688 30.007812 14.179688 30.554688 C 14.179688 30.980469 14.253906 31.308594 15.445312 31.527344 C 16.019531 31.6875 17.179688 31.886719 17.179688 31.964844 C 17.179688 32.042969 14.53125 31.964844 14.53125 31.964844 C 13.113281 31.855469 12.980469 30.871094 12.980469 30.871094 L 12.441406 28.894531 L 11.90625 30.871094 C 11.90625 30.871094 11.6875 31.855469 10.269531 31.964844 C 10.269531 31.964844 7.863281 32.042969 7.863281 31.964844 C 7.863281 31.886719 8.828125 31.707031 9.441406 31.527344 C 10.269531 31.285156 10.707031 30.980469 10.707031 30.554688 C 10.707031 30.007812 10.597656 26.039062 10.597656 26.039062 L 10.269531 30.007812 C 10.269531 30.007812 10.269531 30.980469 8.75 30.980469 C 8.75 30.980469 6.585938 30.988281 6.585938 30.898438 C 6.585938 30.804688 8.414062 30.554688 8.414062 30.554688 C 9.179688 30.335938 9.289062 30.007812 9.289062 29.789062 L 9.179688 24.949219 C 9.179688 24.949219 8.851562 28.695312 8.851562 28.914062 C 8.851562 29.132812 8.851562 30.117188 7.652344 30.117188 C 7.652344 30.117188 5.632812 30.015625 5.632812 29.949219 C 5.632812 29.878906 6.796875 29.679688 7.332031 29.460938 Z M 7.332031 29.460938 "/>
<path style=" stroke:none;fill-rule:nonzero;fill:rgb(99.607843%,39.215687%,27.450982%);fill-opacity:1;" d="M 7.269531 22.96875 C 7.269531 22.96875 7.042969 23.515625 6.539062 23.8125 C 6.03125 24.109375 5.445312 24.203125 4.894531 24.277344 C 4.894531 24.277344 5.652344 24.65625 6.582031 24.570312 C 7.164062 24.523438 7.40625 24.671875 7.5 24.953125 Z M 17.507812 22.925781 C 17.507812 22.925781 17.832031 23.472656 18.339844 23.769531 C 18.847656 24.066406 19.433594 24.160156 19.984375 24.234375 C 19.984375 24.234375 19.226562 24.613281 18.296875 24.53125 C 17.714844 24.484375 17.472656 24.628906 17.378906 24.910156 Z M 17.507812 22.925781 "/>
<use xlink:href="#surface5" mask="url(#mask0)"/>
<use xlink:href="#surface8" mask="url(#mask1)"/>
<path style=" stroke:none;fill-rule:nonzero;fill:rgb(99.607843%,41.960785%,23.529412%);fill-opacity:1;" d="M 17.96875 10.667969 C 17.96875 10.667969 18.050781 9.710938 17.632812 8.574219 C 16.484375 5.445312 13.667969 4.816406 12.148438 4.902344 C 12.148438 4.902344 14.304688 5.921875 14.402344 9.179688 C 14.449219 10.625 14.449219 10.667969 14.449219 10.667969 Z M 17.96875 10.667969 "/>
<path style=" stroke:none;fill-rule:nonzero;fill:rgb(100%,100%,100%);fill-opacity:1;" d="M 14.425781 18.746094 C 14.425781 19.960938 13.621094 20.605469 12.316406 20.605469 C 11.011719 20.605469 10.292969 19.839844 10.292969 18.746094 C 10.292969 18.746094 11.011719 19.757812 12.316406 19.757812 C 13.621094 19.757812 14.425781 18.746094 14.425781 18.746094 Z M 14.425781 18.746094 "/>
<path style=" stroke:none;fill-rule:nonzero;fill:rgb(100%,100%,100%);fill-opacity:1;" d="M 14.425781 18.746094 C 14.425781 19.960938 13.621094 20.605469 12.316406 20.605469 C 11.011719 20.605469 10.292969 19.839844 10.292969 18.746094 C 10.292969 18.746094 11.011719 19.757812 12.316406 19.757812 C 13.621094 19.757812 14.425781 18.746094 14.425781 18.746094 Z M 14.425781 18.746094 "/>
<path style=" stroke:none;fill-rule:nonzero;fill:rgb(100%,100%,100%);fill-opacity:1;" d="M 14.425781 18.746094 C 14.425781 19.960938 13.9375 21.871094 12.316406 21.871094 C 10.691406 21.871094 10.292969 19.839844 10.292969 18.746094 C 10.292969 18.746094 10.292969 20.605469 12.316406 20.605469 C 14.527344 20.605469 14.425781 18.746094 14.425781 18.746094 Z M 14.425781 18.746094 "/>
<path style=" stroke:none;fill-rule:nonzero;fill:rgb(2.745098%,3.529412%,3.529412%);fill-opacity:1;" d="M 14.425781 18.746094 C 14.425781 19.960938 13.9375 21.871094 12.316406 21.871094 C 10.691406 21.871094 10.292969 19.839844 10.292969 18.746094 C 10.292969 18.746094 10.292969 20.605469 12.316406 20.605469 C 14.527344 20.605469 14.425781 18.746094 14.425781 18.746094 Z M 14.425781 18.746094 "/>
<path style=" stroke:none;fill-rule:nonzero;fill:rgb(99.607843%,39.215687%,27.450982%);fill-opacity:1;" d="M 8.480469 16.890625 C 10.320312 16.886719 11.8125 15.394531 11.8125 13.554688 C 11.8125 11.710938 10.320312 10.21875 8.480469 10.21875 C 6.636719 10.21875 5.144531 11.710938 5.144531 13.554688 C 5.144531 15.394531 6.636719 16.890625 8.480469 16.890625 Z M 8.480469 16.890625 "/>
<path style=" stroke:none;fill-rule:nonzero;fill:rgb(100%,100%,100%);fill-opacity:1;" d="M 8.46875 16.207031 C 9.914062 16.207031 11.082031 15.035156 11.078125 13.59375 C 11.082031 12.152344 9.914062 10.984375 8.46875 10.984375 C 7.027344 10.984375 5.859375 12.152344 5.859375 13.59375 C 5.859375 15.035156 7.027344 16.207031 8.46875 16.207031 Z M 8.46875 16.207031 "/>
<path style=" stroke:none;fill-rule:nonzero;fill:rgb(3.529412%,4.313726%,4.313726%);fill-opacity:1;" d="M 8.394531 13.933594 C 8.835938 13.933594 9.195312 13.574219 9.195312 13.132812 C 9.195312 12.6875 8.835938 12.328125 8.394531 12.328125 C 7.953125 12.332031 7.59375 12.6875 7.59375 13.132812 C 7.59375 13.574219 7.953125 13.933594 8.394531 13.933594 Z M 8.394531 13.933594 "/>
<path style=" stroke:none;fill-rule:nonzero;fill:rgb(99.607843%,39.215687%,27.450982%);fill-opacity:1;" d="M 16.324219 16.890625 C 18.167969 16.886719 19.660156 15.394531 19.65625 13.554688 C 19.65625 11.710938 18.164062 10.21875 16.324219 10.21875 C 14.484375 10.21875 12.992188 11.710938 12.992188 13.554688 C 12.992188 15.394531 14.484375 16.890625 16.324219 16.890625 Z M 16.324219 16.890625 "/>
<path style=" stroke:none;fill-rule:nonzero;fill:rgb(100%,100%,100%);fill-opacity:1;" d="M 16.191406 16.203125 C 17.632812 16.203125 18.804688 15.03125 18.804688 13.589844 C 18.804688 12.148438 17.632812 10.980469 16.191406 10.980469 C 14.75 10.980469 13.582031 12.148438 13.582031 13.589844 C 13.582031 15.03125 14.75 16.203125 16.191406 16.203125 Z M 16.191406 16.203125 "/>
<path style=" stroke:none;fill-rule:nonzero;fill:rgb(3.529412%,4.313726%,4.313726%);fill-opacity:1;" d="M 16.242188 13.933594 C 16.683594 13.933594 17.042969 13.574219 17.042969 13.132812 C 17.042969 12.6875 16.683594 12.328125 16.242188 12.328125 C 15.796875 12.332031 15.4375 12.6875 15.4375 13.132812 C 15.4375 13.574219 15.796875 13.933594 16.242188 13.933594 Z M 16.242188 13.933594 "/>
</g>
</svg>

<svg xmlns:xlink="http://www.w3.org/1999/xlink" role="img" viewBox="0 0 24.889 32" xmlns="http://www.w3.org/2000/svg"><defs><clipPath id="d"><use xlink:href="#a"/></clipPath><clipPath id="e"><use xlink:href="#a"/></clipPath><path d="M0 0h25v32H0z" id="a"/><path d="M0 0h24.889v32H0z" id="c"/><mask id="g"><g filter="url(#b)"><use xlink:href="#c" style="fill:rgb(0%,0%,0%);fill-opacity:0.3;stroke:none"/></g></mask><mask id="i"><g filter="url(#b)"><use xlink:href="#c" style="fill:rgb(0%,0%,0%);fill-opacity:0.5;stroke:none"/></g></mask><g clip-path="url(#d)" id="f"><path d="m17.512 22.832.043-.687c-2.68 1.265-5.172 1.132-5.172 1.132s-2.504.106-5.137-1.136l.02.668s1.875 1.152 5.117 1.152c3.246 0 5.129-1.129 5.129-1.129m0 0" style="stroke:none;fill-rule:nonzero;fill:rgb(99.607843%,39.215687%,27.450982%);fill-opacity:1"/></g><g clip-path="url(#e)" id="h"><path d="M10.23 8.32a.76.76 0 0 0 .676-.375.766.766 0 0 0-.68-1.152.76.76 0 0 0-.742.766.76.76 0 0 0 .746.761m0 0" style="stroke:none;fill-rule:nonzero;fill:rgb(99.607843%,65.490198%,46.666667%);fill-opacity:1"/></g><filter filterUnits="objectBoundingBox" height="100%" id="b" width="100%" x="0%" y="0%"><feColorMatrix in="SourceGraphic" values="0 0 0 0 1 0 0 0 0 1 0 0 0 0 1 0 0 0 1 0"/></filter></defs><path d="M14.426 18.746c0 1.215-.805 1.86-2.11 1.86-1.304 0-2.023-.766-2.023-1.86 0 0 .719 1.012 2.023 1.012 1.305 0 2.11-1.012 2.11-1.012m0 0" style="stroke:none;fill-rule:nonzero;fill:rgb(100%,100%,100%);fill-opacity:1"/><path d="M12.445 23.473c6.36 0 11.516-5.157 11.516-11.524C23.96 5.586 18.805.426 12.445.426S.93 5.586.93 11.949c0 6.367 5.156 11.524 11.515 11.524m0 0" style="stroke:none;fill-rule:nonzero;fill:rgb(88.627452%,96.078432%,98.823529%);fill-opacity:1"/><path d="M12.445 21.594c5.2 0 9.414-4.219 9.414-9.422S17.645 2.75 12.445 2.75c-5.199 0-9.414 4.219-9.414 9.422s4.215 9.422 9.414 9.422m0 0" style="stroke:none;fill-rule:nonzero;fill:rgb(80.392158%,92.54902%,96.470588%);fill-opacity:1"/><path d="M8.922 3.922a.558.558 0 1 0-.555-.559c0 .309.25.559.555.559M4.785 17.879a.198.198 0 0 0 .184.078.193.193 0 0 0 .156-.121.198.198 0 0 0-.035-.195C1.328 12.832 3.5 6.6 7.766 4.156a.19.19 0 0 0 .066-.258.194.194 0 0 0-.258-.074C3.137 6.367.86 12.855 4.785 17.88m0 0" style="stroke:none;fill-rule:nonzero;fill:rgb(100%,100%,100%);fill-opacity:1"/><path d="M.824 9.66a.148.148 0 0 0-.148-.148.152.152 0 0 0-.153.148Zm-.3 4.516c0 .082.07.148.152.148a.148.148 0 0 0 .148-.148Zm23.78-4.535a.152.152 0 0 0-.152-.149.148.148 0 0 0-.148.149Zm-.3 4.515c0 .082.066.149.148.149a.152.152 0 0 0 .153-.149Zm-11.59 9.66c6.566 0 11.89-5.328 11.89-11.898h-.3c0 6.406-5.188 11.598-11.59 11.598Zm11.89-11.898C24.305 5.348 18.98.02 12.415.02v.3c6.402 0 11.59 5.196 11.59 11.598ZM12.415.02C5.848.02.524 5.348.524 11.918h.3C.824 5.512 6.012.32 12.414.32ZM.524 11.918c0 6.57 5.324 11.898 11.89 11.898v-.3c-6.398 0-11.59-5.192-11.59-11.598Zm0-2.258v4.516h.3V9.66Zm23.48-.02v4.516h.3V9.641ZM.93 9.668a.48.48 0 0 0-.227-.418.464.464 0 0 0-.703.418v4.562a.464.464 0 1 0 .93 0Zm23.96 0a.48.48 0 0 0-.226-.418.464.464 0 0 0-.703.418v4.562a.464.464 0 1 0 .93 0Zm0 0" style="stroke:none;fill-rule:nonzero;fill:rgb(70.980394%,82.352942%,95.294118%);fill-opacity:1"/><path d="M7.332 29.46c.54-.218.43-.437.43-.542L7.5 24.953l-.23-1.984-.348-12.383c0-2.938 2.172-5.688 5.453-5.688s5.602 2.645 5.605 5.688c-.093 5.879-.253 8.117-.472 12.34-.028.578-.102 1.449-.13 1.984-.12 2.64-.26 3.934-.26 4.008 0 .11-.11.324.425.543.539.219 1.777.504 1.777.574 0 .067-2.093 0-2.093 0-1.2 0-1.2-.902-1.2-1.117 0-.219-.328-3.969-.328-3.969l-.11 4.84c0 .219.11.547.872.766 0 0 1.668.25 1.668.343 0 .09-1.992 0-1.992 0-1.52 0-1.52-.89-1.52-.89l-.328-3.965s-.11 3.965-.11 4.512c0 .425.075.754 1.266.972.575.16 1.735.36 1.735.438 0 .078-2.649 0-2.649 0-1.418-.11-1.55-1.094-1.55-1.094l-.54-1.976-.535 1.976s-.219.984-1.636 1.094c0 0-2.407.078-2.407 0s.965-.258 1.578-.438c.829-.242 1.266-.547 1.266-.972 0-.547-.11-4.516-.11-4.516l-.327 3.969s0 .972-1.52.972c0 0-2.164.008-2.164-.082 0-.093 1.828-.343 1.828-.343.766-.22.875-.547.875-.766l-.11-4.84s-.327 3.746-.327 3.965c0 .219 0 1.203-1.2 1.203 0 0-2.02-.101-2.02-.168 0-.07 1.165-.27 1.7-.488m0 0" style="stroke:none;fill-rule:nonzero;fill:rgb(99.607843%,45.09804%,24.313726%);fill-opacity:1"/><path d="M7.27 22.969s-.227.547-.73.843c-.509.297-1.095.391-1.645.465 0 0 .757.38 1.687.293.582-.047.824.102.918.383Zm10.238-.043s.324.547.832.844c.508.296 1.094.39 1.644.464 0 0-.757.38-1.687.297-.582-.047-.824.098-.918.38Zm0 0" style="stroke:none;fill-rule:nonzero;fill:rgb(99.607843%,39.215687%,27.450982%);fill-opacity:1"/><use xlink:href="#f" mask="url(#g)"/><use xlink:href="#h" mask="url(#i)"/><path d="M17.969 10.668s.082-.957-.336-2.094c-1.149-3.129-3.965-3.758-5.485-3.672 0 0 2.157 1.02 2.254 4.278.047 1.445.047 1.488.047 1.488Zm0 0" style="stroke:none;fill-rule:nonzero;fill:rgb(99.607843%,41.960785%,23.529412%);fill-opacity:1"/><path d="M14.426 18.746c0 1.215-.805 1.86-2.11 1.86-1.304 0-2.023-.766-2.023-1.86 0 0 .719 1.012 2.023 1.012 1.305 0 2.11-1.012 2.11-1.012m0 0c0 1.215-.805 1.86-2.11 1.86-1.304 0-2.023-.766-2.023-1.86 0 0 .719 1.012 2.023 1.012 1.305 0 2.11-1.012 2.11-1.012m0 0c0 1.215-.489 3.125-2.11 3.125-1.625 0-2.023-2.031-2.023-3.125 0 0 0 1.86 2.023 1.86 2.211 0 2.11-1.86 2.11-1.86m0 0" style="stroke:none;fill-rule:nonzero;fill:rgb(100%,100%,100%);fill-opacity:1"/><path d="M14.426 18.746c0 1.215-.489 3.125-2.11 3.125-1.625 0-2.023-2.031-2.023-3.125 0 0 0 1.86 2.023 1.86 2.211 0 2.11-1.86 2.11-1.86m0 0" style="stroke:none;fill-rule:nonzero;fill:rgb(2.745098%,3.529412%,3.529412%);fill-opacity:1"/><path d="M8.48 16.89a3.338 3.338 0 0 0 3.332-3.335 3.333 3.333 0 1 0-6.667 0A3.337 3.337 0 0 0 8.48 16.89m0 0" style="stroke:none;fill-rule:nonzero;fill:rgb(99.607843%,39.215687%,27.450982%);fill-opacity:1"/><path d="M8.469 16.207a2.607 2.607 0 0 0 2.61-2.613 2.604 2.604 0 0 0-2.61-2.61 2.612 2.612 0 0 0 0 5.223m0 0" style="stroke:none;fill-rule:nonzero;fill:rgb(100%,100%,100%);fill-opacity:1"/><path d="M8.395 13.934a.802.802 0 1 0-.003-1.604.802.802 0 0 0 .003 1.604m0 0" style="stroke:none;fill-rule:nonzero;fill:rgb(3.529412%,4.313726%,4.313726%);fill-opacity:1"/><path d="M16.324 16.89a3.333 3.333 0 0 0 3.332-3.335 3.333 3.333 0 0 0-3.332-3.336 3.336 3.336 0 0 0 0 6.672m0 0" style="stroke:none;fill-rule:nonzero;fill:rgb(99.607843%,39.215687%,27.450982%);fill-opacity:1"/><path d="M16.191 16.203a2.616 2.616 0 0 0 2.614-2.613 2.612 2.612 0 0 0-5.223 0 2.612 2.612 0 0 0 2.61 2.613m0 0" style="stroke:none;fill-rule:nonzero;fill:rgb(100%,100%,100%);fill-opacity:1"/><path d="M16.242 13.934a.802.802 0 1 0-.002-1.604.802.802 0 0 0 .002 1.604m0 0" style="stroke:none;fill-rule:nonzero;fill:rgb(3.529412%,4.313726%,4.313726%);fill-opacity:1"/></svg>
